frontend/public/svg/interface/volume-up.svg

<svg width="154" height="128" viewBox="0 0 154 128" fill="none" xmlns="http://www.w3.org/2000/svg">
<g clip-path="url(#clip0)">
<path d="M1.40582 94.0292C1.32577 97.532 3.08044 100.064 6.22049 100.975C7.5385 101.344 8.90084 101.528 10.2689 101.521H10.3166C15.933 101.506 23.2778 101.191 30.4391 98.8886C31.3055 99.4383 32.1662 99.9887 33.0214 100.54C35.0298 101.829 37.1058 103.162 39.1865 104.402C53.3063 112.821 68.5852 119.389 83.3617 125.743L86.1906 126.959C86.3849 127.049 86.585 127.125 86.7896 127.188C87.1415 127.296 87.5069 127.353 87.8755 127.357C88.3584 127.37 88.8335 127.234 89.2377 126.967C89.5753 126.713 89.8497 126.384 90.0414 126.006C90.2331 125.628 90.3364 125.211 90.3442 124.786C90.3719 124.498 90.3835 124.201 90.3945 123.911C90.3919 123.401 90.4513 122.892 90.5721 122.396C93.5759 112.603 95.6869 102.556 96.8793 92.3775L97.3176 88.4992C98.5068 78.0448 99.7359 67.235 99.8586 56.4767C100.018 42.4857 99.1207 28.3264 98.253 14.633C98.1026 12.2601 97.9535 9.88647 97.8063 7.51185C97.7243 6.13207 97.4951 4.76517 97.1233 3.43466C97.0051 2.86363 96.7644 2.32548 96.4183 1.85789C96.0717 1.3903 95.6281 1.00457 95.1181 0.727814C94.5649 0.501868 93.9697 0.39816 93.3732 0.423719C92.7767 0.449277 92.1924 0.603522 91.6598 0.875969C90.7347 1.27231 89.7735 1.64069 88.8439 1.99741C88.0485 2.30149 87.2532 2.6062 86.4675 2.93173C85.2209 3.44828 83.9705 3.9545 82.7193 4.46195C79.4269 5.79653 76.0164 7.17723 72.7395 8.71713C68.9397 10.502 65.0001 12.596 60.6967 15.1203C50.0093 21.3871 39.5751 27.5357 29.4106 33.8565C27.7258 34.9896 25.7493 35.6038 23.7231 35.6238C19.5785 35.6959 15.4469 35.9837 11.4514 36.2618C3.72006 36.8005 2.41803 39.5944 2.28891 46.073C2.26761 47.134 2.2747 48.1957 2.28245 49.2567C2.2902 50.3054 2.29729 51.3554 2.27599 52.4041C2.02163 65.1961 1.73248 79.6964 1.40582 94.0292ZM28.423 66.3422C28.4417 67.2142 28.4563 68.0861 28.4724 68.96C28.5861 75.4374 28.7045 82.1284 30.1434 89.1398H11.8569C11.8511 89.1035 11.8453 89.0664 11.8388 89.03C11.7399 88.5018 11.6782 87.9671 11.6543 87.4297C11.5652 82.8971 11.4811 78.3638 11.4024 73.8299C11.2952 67.8171 11.1813 61.8044 11.0609 55.7912C11.0279 54.2539 10.9261 52.7017 10.8266 51.1995C10.7621 50.1774 10.6917 49.1547 10.6452 48.1314C10.6091 47.3393 10.6181 46.542 10.6277 45.6993C10.6277 45.5044 10.6323 45.3095 10.6336 45.1146L28.8019 44.0185C28.756 46.0866 28.6933 48.1626 28.6307 50.2437C28.4712 55.5131 28.3087 60.9625 28.423 66.3422ZM84.8691 116.831C84.9336 117.537 84.9982 118.242 85.0783 119.156L85.0847 119.23C73.3353 109.041 60.0202 102.098 47.125 95.3774C44.2709 93.8895 41.3233 92.3535 38.4608 90.8142C38.5067 88.1717 38.57 85.5714 38.6326 83.0011C38.7817 76.8467 38.9229 71.0334 38.83 65.133C38.737 59.2089 38.4137 53.3982 38.0715 47.2464C37.9282 44.6805 37.7842 42.0906 37.6564 39.4656C38.0166 39.1987 38.3907 38.9512 38.777 38.7243C42.8996 36.3735 47.0251 34.0273 51.1529 31.6856C60.695 26.2648 70.562 20.6601 80.2203 15.0645C82.5179 13.6722 84.7374 12.1538 86.8697 10.5163C87.6018 9.97633 88.3545 9.42334 89.1292 8.8639C89.0788 9.63905 89.0278 10.3954 88.9788 11.138C88.8129 13.6116 88.656 15.9462 88.5682 18.2807C88.4927 20.2694 88.4152 22.2587 88.3364 24.2487C88.0246 32.2262 87.7025 40.4754 87.5366 48.5946C87.2203 64.0723 86.2132 80.8069 84.4572 99.7567C83.9169 105.594 84.3643 111.392 84.8691 116.831Z" fill="black"/>
<path d="M135.823 11.7037C134.114 9.10471 132.089 8.98841 130.763 9.75446C129.69 10.3704 128.734 11.7999 130.268 15.1123C131.054 16.8077 131.843 18.5013 132.636 20.1933C133.49 22.0165 134.34 23.8405 135.187 25.6654C139.126 34.0427 141.549 43.0599 142.342 52.2934C143.216 62.8678 141.615 73.501 137.669 83.3408C133.43 94.1311 128.335 104.561 122.434 114.529C121.982 115.283 121.655 116.817 122.24 117.619C122.523 117.914 122.864 118.144 123.242 118.295C123.619 118.447 124.025 118.515 124.431 118.497C124.732 118.504 125.031 118.452 125.312 118.344C127.262 117.517 128.985 116.73 130.344 115.463C133.154 112.913 135.759 110.143 138.136 107.181C142.231 101.892 145.122 95.7639 147.731 89.9396C151.233 82.0666 153.185 73.5842 153.477 64.9635V64.9504C153.593 51.0859 150.316 37.4058 143.937 25.1171C141.424 20.3603 138.552 15.8601 135.823 11.7037Z" fill="black"/>
<path d="M106.942 102.399C107.492 102.714 108.117 102.871 108.75 102.854C109.277 102.86 109.8 102.763 110.291 102.568C113.677 101.18 116.681 98.9907 119.046 96.1845C123.408 90.8858 126.466 85.7002 128.393 80.3307C129.852 76.2847 130.559 72.0022 130.477 67.6976C130.245 55.7086 126.103 44.5668 117.816 33.6283C117.177 32.7957 116.446 32.0395 115.637 31.3744C113.922 29.9495 111.595 29.7169 110.228 30.8364C108.91 31.9162 108.609 33.9623 109.478 35.9291C109.893 36.8654 110.39 37.7672 110.871 38.6392C111.084 39.0238 111.295 39.4085 111.501 39.797C116.569 49.3671 118.818 57.6084 118.58 65.7334V65.7614C118.637 72.6877 116.886 79.5074 113.501 85.5384C111.829 88.6416 110.225 91.8409 108.674 94.9389C108.02 96.2436 107.365 97.5457 106.708 98.8465C106.249 99.7503 105.396 101.433 106.942 102.399Z" fill="black"/>
</g>
<defs>
<clipPath id="clip0">
<rect width="153" height="128" fill="white" transform="translate(0.777344)"/>
</clipPath>
</defs>
</svg>

<svg xmlns="http://www.w3.org/2000/svg" width="154" height="128" fill="none" viewBox="0 0 154 128"><g fill="#000" clip-path="url(#a)"><path d="M1.406 94.03c-.08 3.502 1.674 6.034 4.814 6.945a14.7 14.7 0 0 0 4.049.546h.048c5.616-.015 12.96-.33 20.122-2.632q1.3.825 2.582 1.651c2.009 1.289 4.085 2.622 6.166 3.862 14.12 8.419 29.398 14.987 44.175 21.341l2.829 1.216q.291.135.599.229c.351.108.717.165 1.085.169.483.013.959-.123 1.363-.39.337-.254.612-.583.803-.961a2.8 2.8 0 0 0 .303-1.22c.028-.288.04-.585.05-.875a6.3 6.3 0 0 1 .178-1.515 169.7 169.7 0 0 0 6.307-30.019l.439-3.878c1.189-10.454 2.418-21.264 2.54-32.022.16-13.991-.737-28.15-1.605-41.844q-.226-3.56-.447-7.121a19.4 19.4 0 0 0-.683-4.077 4 4 0 0 0-.705-1.577 4 4 0 0 0-1.3-1.13 4.14 4.14 0 0 0-3.458.148c-.925.396-1.886.765-2.816 1.121-.795.304-1.59.61-2.376.935-1.247.516-2.498 1.023-3.749 1.53-3.292 1.335-6.703 2.715-9.98 4.255-3.8 1.785-7.739 3.879-12.042 6.403-10.688 6.267-21.122 12.416-31.286 18.737a10.37 10.37 0 0 1-5.688 1.767c-4.145.072-8.276.36-12.272.638-7.73.538-9.033 3.332-9.162 9.811a116 116 0 0 0-.007 3.184c.008 1.048.015 2.098-.006 3.147a14513 14513 0 0 1-.87 41.625m27.017-27.688q.026 1.308.05 2.618c.113 6.477.232 13.168 1.67 20.18H11.857l-.018-.11a11.5 11.5 0 0 1-.185-1.6q-.133-6.8-.252-13.6-.16-9.02-.341-18.039c-.033-1.537-.135-3.09-.234-4.591-.065-1.023-.135-2.045-.182-3.069a43 43 0 0 1-.017-2.432q.002-.293.006-.584l18.168-1.096c-.046 2.068-.109 4.144-.171 6.225-.16 5.27-.322 10.718-.208 16.098m56.446 50.489c.065.706.13 1.411.21 2.325l.006.074c-11.75-10.189-25.065-17.132-37.96-23.853a741 741 0 0 1-8.664-4.563c.046-2.642.109-5.243.172-7.813.149-6.154.29-11.968.197-17.868-.093-5.924-.416-11.735-.758-17.887-.144-2.565-.288-5.155-.416-7.78q.541-.401 1.121-.742 6.184-3.526 12.376-7.038c9.542-5.421 19.409-11.026 29.067-16.621a73 73 0 0 0 6.65-4.549 277 277 0 0 1 2.26-1.652l-.151 2.274c-.166 2.474-.323 4.808-.41 7.143q-.114 2.983-.233 5.968c-.311 7.977-.633 16.226-.8 24.346-.316 15.477-1.323 32.212-3.079 51.162-.54 5.837-.093 11.635.412 17.074m50.954-105.126c-1.709-2.6-3.734-2.716-5.06-1.95-1.073.616-2.029 2.046-.495 5.358a1346 1346 0 0 0 2.368 5.081q1.28 2.734 2.551 5.472a78.3 78.3 0 0 1 7.155 26.628 68.3 68.3 0 0 1-4.673 31.048 217 217 0 0 1-15.235 31.188c-.452.754-.779 2.288-.194 3.09a2.86 2.86 0 0 0 2.191.878c.301.007.6-.045.881-.153 1.95-.827 3.673-1.614 5.032-2.881a72 72 0 0 0 7.792-8.282c4.095-5.289 6.986-11.417 9.595-17.241a67 67 0 0 0 5.746-24.976v-.014a84.9 84.9 0 0 0-9.54-39.833c-2.513-4.757-5.385-9.257-8.114-13.413"/><path d="M106.942 102.399a3.45 3.45 0 0 0 1.808.455 4 4 0 0 0 1.541-.286 22.7 22.7 0 0 0 8.755-6.383c4.362-5.3 7.42-10.485 9.347-15.854a35.3 35.3 0 0 0 2.084-12.633c-.232-11.99-4.374-23.131-12.661-34.07a13.8 13.8 0 0 0-2.179-2.254c-1.715-1.424-4.042-1.657-5.409-.538-1.318 1.08-1.619 3.126-.75 5.093.415.936.912 1.838 1.393 2.71q.32.577.63 1.158c5.068 9.57 7.317 17.811 7.079 25.936v.028a39.74 39.74 0 0 1-5.079 19.777c-1.672 3.104-3.276 6.303-4.827 9.4q-.98 1.958-1.966 3.909c-.459.903-1.312 2.586.234 3.552"/></g><defs><clipPath id="a"><path fill="#fff" d="M.777 0h153v128h-153z"/></clipPath></defs></svg>
